app/images/favicon/favicon.svg

<svg width="40" height="40" viewBox="0 0 40 40" fill="none" xmlns="http://www.w3.org/2000/svg">
<rect width="40" height="40" fill="#ECEBEB"/>
<path d="M23.1994 12.2702C22.3684 11.8802 21.3435 11.6852 20.1247 11.6852C18.795 11.6852 17.5762 11.9359 16.4681 12.4373C14.9169 13.1616 13.6981 14.2201 12.8116 15.6128C11.9806 17.0056 11.5651 18.4819 11.5651 20.0418C11.5651 22.3259 12.4515 24.3593 14.2244 26.1421C14.8338 26.7549 15.7202 27.3398 16.8837 27.8969C18.0471 28.3983 19.0166 28.649 19.7922 28.649C21.8421 28.649 23.7535 27.8134 25.5263 26.1421C27.3546 24.415 28.2687 22.3538 28.2687 19.9582C28.2687 18.3426 27.8255 16.8384 26.9391 15.4457C26.0526 14.0529 24.8061 12.9944 23.1994 12.2702ZM17.5485 5.2507C18.4349 5.13928 19.1551 5.08357 19.7091 5.08357C22.2576 5.08357 24.5845 5.61281 26.6898 6.67131C27.7978 7.28412 28.4072 7.59053 28.518 7.59053C28.6288 7.59053 28.6842 7.14485 28.6842 6.25349V5H35V35H28.6842V32.4095L26.856 33.3287C24.6399 34.4429 22.313 35 19.8753 35C17.1607 35 14.7784 34.415 12.7285 33.2451C10.3463 31.9081 8.4626 30.0696 7.07756 27.7298C5.69252 25.3343 5 22.7994 5 20.1253C5 19.0669 5.0554 18.2869 5.16621 17.7855C5.72022 14.5543 7.13296 11.7967 9.40443 9.51254C11.6759 7.22841 14.3906 5.8078 17.5485 5.2507Z" fill="#2A364E"/>
</svg>

<svg width="40" height="40" fill="none" xmlns="http://www.w3.org/2000/svg"><path fill="#ECEBEB" d="M0 0h40v40H0z"/><path d="M23.2 12.27a7.21 7.21 0 0 0-3.08-.58 8.49 8.49 0 0 0-7.31 3.93 8.42 8.42 0 0 0 1.41 10.53 9.59 9.59 0 0 0 5.57 2.5c2.05 0 3.96-.84 5.74-2.5a8.22 8.22 0 0 0 2.74-6.2 8.4 8.4 0 0 0-5.07-7.69Zm-5.65-7.02a15.32 15.32 0 0 1 9.14 1.42c1.1.61 1.72.92 1.83.92.1 0 .16-.45.16-1.34V5H35v30h-6.32v-2.59l-1.82.92A15.34 15.34 0 0 1 19.88 35c-2.72 0-5.1-.59-7.15-1.75A14.96 14.96 0 0 1 5 20.13 15.06 15.06 0 0 1 9.4 9.52a14.87 14.87 0 0 1 8.15-4.27Z" fill="#2A364E"/></svg>
